app/[lang]/(home)/(new-home)/assets/stacks-appicons/claude-code.svg

<svg width="31" height="32" viewBox="0 0 31 32" fill="none" xmlns="http://www.w3.org/2000/svg">
<g clip-path="url(#clip0_77_968)">
<path fill-rule="evenodd" clip-rule="evenodd" d="M23.706 0.743164H7.04767C3.27508 0.743164 0.188395 3.84414 0.188395 7.63414V24.2289C0.188395 28.019 3.27508 31.1199 7.04767 31.1199H23.706C27.4785 31.1199 30.5652 28.019 30.5652 24.2289V7.63414C30.5652 3.84414 27.4785 0.743164 23.706 0.743164Z" fill="#D77655"/>
<path d="M22.124 19.616L17.7541 17.1528L17.6806 16.9389L17.7541 16.8199L17.967 16.8199L18.6973 16.7746L21.1942 16.7068L23.3596 16.6165L25.4575 16.5034L25.9854 16.3905L26.4802 15.7351L26.4292 15.4083L25.9853 15.1085L25.3495 15.1642L23.9444 15.2606L21.836 15.4067L20.3064 15.4971L18.0404 15.7337H17.6806L17.6296 15.5876L17.7526 15.4971L17.8486 15.4067L20.0305 13.9213L22.3924 12.3514L23.6295 11.4474L24.2984 10.9895L24.6358 10.5601L24.7812 9.62308L24.1738 8.95116L23.358 9.00689L23.1496 9.06268L22.3233 9.7014L20.5583 11.0739L18.2534 12.7793L17.916 13.0611L17.7811 12.9647L17.7646 12.8968L17.916 12.6423L19.1697 10.3658L20.5073 8.0503L21.1027 7.09061L21.2602 6.51513C21.3156 6.27862 21.3561 6.07978 21.3561 5.83719L20.6648 4.89407L20.2824 4.77051L19.3601 4.89407L18.9717 5.23304L18.3989 6.54982L17.4706 8.62286L16.031 11.4416L15.6095 12.2777L15.3846 13.0521L15.3006 13.2886L15.1553 13.2886V13.153L15.0368 11.565L14.8179 9.61557L14.605 7.10718L14.5315 6.40063L14.1836 5.55389L13.4923 5.09595L12.9525 5.35511L12.5086 5.99383L12.57 6.40665L12.834 8.13011L13.3513 10.8298L13.6887 12.6377H13.4922L13.2672 12.4117L12.357 11.1975L10.8273 9.2766L10.1525 8.51432L9.36521 7.67217L8.8599 7.27139L7.90469 7.27133L7.2014 8.32138L7.51626 9.40612L8.50001 10.6595L9.31579 11.7216L10.4855 13.3035L11.2158 14.569L11.1483 14.67L10.9744 14.6534L8.33205 14.0884L6.90446 13.8293L5.20087 13.5356L4.43005 13.8971L4.34604 14.2647L4.64898 15.0165L6.47099 15.4685L8.60793 15.8979L11.7901 16.6542L11.8291 16.6828L11.7841 16.7385L10.3505 16.8741L9.73721 16.9073H8.23611L5.44085 17.1167L4.71057 17.6018L4.27265 18.1954L4.3461 18.6474L5.47081 19.2229L6.98841 18.8613L10.5305 18.0147L11.7452 17.7103L11.9131 17.7103V17.8112L10.9009 18.8055L9.0459 20.4884L6.72303 22.6578L6.60455 23.1942L6.90297 23.6175L7.21784 23.5723L9.25883 22.0295L10.0461 21.3351L11.8292 19.827L11.9476 19.8269V19.9851L11.5367 20.5893L9.36676 23.866L9.25433 24.8709L9.41173 25.1978L9.97411 25.3952L10.592 25.2822L11.8621 23.4909L13.1728 21.4736L14.23 19.6658L14.3589 19.7395L14.9828 26.4904L15.2752 26.8354L15.95 27.0946L16.5124 26.6652L16.8108 25.9706L16.5124 24.5981L16.1525 22.8069L15.8601 21.3832L15.5961 19.6145L15.4387 19.0269L15.4492 18.9878L15.5781 19.0043L16.9053 20.8348L18.9237 23.5752L20.5208 25.2927L20.9032 25.4449L21.5661 25.0998L21.5046 24.4837L21.1342 23.9353L18.9237 21.1106L17.5906 19.3599L16.7299 18.349L16.7359 18.2029H16.7868L22.6577 22.0325L23.703 22.1681L24.1529 21.7448L24.0974 21.0502L23.8844 20.8243L22.1194 19.6039L22.1254 19.61L22.124 19.616Z" fill="#FCF2EE"/>
</g>
<defs>
<clipPath id="clip0_77_968">
<rect width="30.3768" height="30.3768" fill="white" transform="matrix(-1 0 0 1 30.5652 0.743164)"/>
</clipPath>
</defs>
</svg>

<svg xmlns="http://www.w3.org/2000/svg" fill="none" viewBox="0 0 31 32">
  <g clip-path="url(#a)">
    <path
      fill="#D77655"
      fill-rule="evenodd"
      d="M23.7.74H7.06a6.9 6.9 0 0 0-6.86 6.9v16.59a6.9 6.9 0 0 0 6.86 6.89H23.7a6.9 6.9 0 0 0 6.86-6.9V7.64A6.9 6.9 0 0 0 23.7.74Z"
      clip-rule="evenodd"
    />
    <path
      fill="#FCF2EE"
      d="m22.12 19.62-4.37-2.47-.07-.21.07-.12h.22l.73-.05 2.5-.06 2.16-.1 2.1-.1.53-.12.49-.65-.05-.33-.44-.3-.64.05-1.4.1-2.11.15-1.53.09-2.27.23h-.36l-.05-.14.12-.1.1-.08 2.18-1.49 2.36-1.57 1.24-.9.67-.46.34-.43.14-.94-.6-.67-.82.06-.21.05-.83.64-1.76 1.37-2.3 1.7-.34.3-.14-.1-.02-.07.16-.26 1.25-2.27 1.34-2.32.6-.96.15-.57c.06-.24.1-.44.1-.68l-.7-.95-.38-.12-.92.12-.39.34-.57 1.32-.93 2.07-1.44 2.82-.42.84-.23.77-.08.24h-.14v-.14l-.12-1.59-.22-1.94-.21-2.51-.08-.7-.35-.86-.69-.45-.54.26-.44.63.06.42.26 1.72.52 2.7.34 1.8h-.2l-.22-.22-.91-1.21-1.53-1.92-.68-.77-.78-.84-.51-.4H7.9l-.7 1.05.32 1.09.98 1.25.82 1.06 1.17 1.58.73 1.27-.07.1-.18-.02-2.64-.56-1.43-.26-1.7-.3-.77.37-.08.36.3.76 1.82.45 2.14.43 3.18.75.04.03-.05.06-1.43.13-.61.04h-1.5l-2.8.2-.73.5-.44.59.08.45 1.12.57L7 18.86l3.54-.85 1.22-.3h.16v.1l-1 1-1.86 1.68-2.33 2.17-.12.53.3.43.32-.05 2.04-1.54.79-.7 1.78-1.5h.12v.16l-.41.6-2.17 3.28-.12 1 .16.33.56.2.62-.12 1.27-1.79 1.31-2.02 1.06-1.8.13.07.62 6.75.3.35.67.25.56-.42.3-.7-.3-1.37-.36-1.8-.29-1.42-.26-1.77-.16-.58v-.04l.14.01 1.33 1.83 2.01 2.75 1.6 1.71.38.15.67-.34-.07-.62-.37-.54-2.2-2.83-1.34-1.75-.86-1.01v-.15h.06l5.87 3.83 1.04.14.45-.43-.05-.69-.22-.23-1.76-1.22v.01Z"
    />
  </g>
  <defs>
    <clipPath id="a">
      <path fill="#fff" d="M30.57.74H.19v30.38h30.38z" />
    </clipPath>
  </defs>
</svg>
